src/assets/skills/creativity.svg

<svg fill="none" height="737" viewBox="0 0 736 737" width="736" xmlns="http://www.w3.org/2000/svg" xmlns:xlink="http://www.w3.org/1999/xlink"><linearGradient id="a" gradientUnits="userSpaceOnUse" x1="368" x2="368" y1="0" y2="737"><stop offset=".00225706" stop-color="#2b5355"/><stop offset="1"/></linearGradient><path d="m0 368.5c0-203.241 164.759-368.5 368-368.5 203.241 0 368 165.259 368 368.5 0 203.241-164.759 368.5-368 368.5-203.241 0-368-165.259-368-368.5z" fill="url(#a)"/><path d="m623.869 280.478c0-111.247-90.366-201.478-201.782-201.478s-202.24 90.917-201.784 202.164c.229 55.281 22.651 105.307 58.797 141.628 28.14 28.326 48.959 63.048 59.253 101.653l16.244 60.079h132.234l15.328-56.881c10.753-39.29 32.029-74.926 61.085-103.48 37.519-36.778 60.625-87.491 60.625-143.685z" fill="#29c3cb"/><path d="m421.18 656.697c-36.217 0-65.659-29.412-65.659-65.551v-12.783h131.318v12.783c0 36.361-29.435 65.551-65.659 65.551z" fill="#fff" stroke="#e1e4e5" stroke-width="4.59"/><path d="m351.262 585.392h138.87c2.745 0 5.261-2.514 5.261-5.254 0-2.97-2.288-5.254-5.261-5.254h-138.87c-2.973 0-5.262 2.284-5.262 5.254 0 2.969 2.289 5.254 5.262 5.254z" fill="#e1e4e5"/><path d="m480.13 632.508h-118.869c-2.974 0-5.261-2.284-5.261-5.254 0-2.969 2.287-5.254 5.261-5.254h118.869c2.974 0 5.261 2.285 5.261 5.254 0 2.74-2.287 5.254-5.261 5.254z" fill="#e1e4e5"/><path d="m351.262 608.508h138.87c2.745 0 5.261-2.514 5.261-5.254 0-2.969-2.288-5.254-5.261-5.254h-138.87c-2.973 0-5.262 2.285-5.262 5.254 0 2.97 2.289 5.254 5.262 5.254z" fill="#e1e4e5"/><path clip-rule="evenodd" d="m339.614 311.804c-4.003 0-7.667.97-10.914 2.883-4.186 2.486-7.705 7.453-9.878 13.964-2.159 6.47-2.894 14.212-1.736 21.869 4.097 26.997 26.587 56.115 77.849 64.458-3.143-30.473-8.362-57.767-16.711-74.028-7.333-14.277-18.921-24.629-30.762-28.028-2.732-.751-5.346-1.118-7.848-1.118zm104.501 259.403.11 2.322h9.011l-.099-2.533-.004-.119-.001-.004c-.15-3.685-3.3-80.974 2.645-147.381 56.274-8.407 82.118-40.67 86.797-71.706 1.383-9.187.499-18.378-2.194-26.17-2.684-7.762-7.24-14.337-13.369-17.984-7.326-4.379-16.094-5.193-25.228-2.578-14.302 4.076-27.598 16.221-35.837 32.186l-.001.003c-9.271 18.024-14.709 47.4-17.888 78.964-6.945.779-14.355 1.187-22.3 1.187-7.944 0-15.354-.408-22.3-1.187-3.179-31.606-8.618-60.94-17.887-78.964l-.001-.003c-8.239-15.964-21.536-28.11-35.837-32.186-9.133-2.613-17.898-1.803-25.225 2.575-6.154 3.647-10.711 10.223-13.389 17.989-2.689 7.793-3.56 16.983-2.177 26.168v.002c4.679 30.991 30.522 63.253 86.796 71.703 5.94 66.358 2.798 143.581 2.644 147.372l-.001.013-.005.12-.098 2.533h9.012l.109-2.324c.223-4.759 2.721-80.353-3.119-146.714 6.757.667 13.952 1.044 21.523 1.044 7.559 0 14.754-.342 21.523-1.031-5.842 66.357-3.435 141.982-3.21 146.703zm12.509-156.185c3.143-30.475 8.362-57.808 16.708-74.023 7.388-14.294 18.938-24.685 30.769-28.033l.017-.004c2.717-.79 5.324-1.158 7.829-1.158 4.002 0 7.658.972 10.897 2.92l.013.007c4.186 2.484 7.707 7.452 9.88 13.965 2.159 6.47 2.896 14.21 1.736 21.868-4.096 26.954-26.588 56.115-77.849 64.458z" fill="#fff" fill-rule="evenodd"/><path d="m339.614 311.804c-4.003 0-7.667.97-10.914 2.883-4.186 2.486-7.705 7.453-9.878 13.964-2.159 6.47-2.894 14.212-1.736 21.869 4.097 26.997 26.587 56.115 77.849 64.458-3.143-30.473-8.362-57.767-16.711-74.028-7.333-14.277-18.921-24.629-30.762-28.028m-7.848-1.118c2.502 0 5.116.367 7.848 1.118m-7.848-1.118 7.848 1.118m50.918 257.954-.005.12-.098 2.533h9.012l.109-2.324c.223-4.759 2.721-80.353-3.119-146.714 6.757.667 13.952 1.044 21.523 1.044 7.559 0 14.754-.342 21.523-1.031-5.842 66.357-3.435 141.982-3.21 146.703l.11 2.322h9.011l-.099-2.533-.004-.119-.001-.004c-.15-3.685-3.3-80.974 2.645-147.381 56.274-8.407 82.118-40.67 86.797-71.706 1.383-9.187.499-18.378-2.194-26.17-2.684-7.762-7.24-14.337-13.369-17.984-7.326-4.379-16.094-5.193-25.228-2.578-14.302 4.076-27.598 16.221-35.837 32.186l-.001.003c-9.271 18.024-14.709 47.4-17.888 78.964-6.945.779-14.355 1.187-22.3 1.187-7.944 0-15.354-.408-22.3-1.187-3.179-31.606-8.618-60.94-17.887-78.964l-.001-.003c-8.239-15.964-21.536-28.11-35.837-32.186-9.133-2.613-17.898-1.803-25.225 2.575-6.154 3.647-10.711 10.223-13.389 17.989-2.689 7.793-3.56 16.983-2.177 26.168v.002c4.679 30.991 30.522 63.253 86.796 71.703 5.94 66.358 2.798 143.581 2.644 147.372m-.001.013.001-.013m-.001.013c.001-.004.001-.008.001-.013m58.243-155.841c3.143-30.475 8.362-57.808 16.708-74.023 7.388-14.294 18.938-24.685 30.769-28.033l.017-.004c2.717-.79 5.324-1.158 7.829-1.158 4.002 0 7.658.972 10.897 2.92l.013.007c4.186 2.484 7.707 7.452 9.88 13.965 2.159 6.47 2.896 14.21 1.736 21.868-4.096 26.954-26.588 56.115-77.849 64.458z" stroke="#fff" stroke-width="3.489"/><g fill="#e1e4e5"><path d="m131.345 394.09h91.257c1.652 0 2.992 1.341 2.992 2.996 0 1.654-1.34 2.996-2.992 2.996h-91.257c-1.652 0-2.992-1.342-2.992-2.996 0-1.655 1.34-2.996 2.992-2.996z"/><path d="m96.9366 292.221h89.7604c1.653 0 2.992 1.342 2.992 2.996 0 1.655-1.339 2.996-2.992 2.996h-89.7604c-1.6524 0-2.9919-1.341-2.9919-2.996 0-1.654 1.3395-2.996 2.9919-2.996z"/><path d="m174.73 451.015h91.256c1.653 0 2.992-1.342 2.992-2.996 0-1.655-1.339-2.996-2.992-2.996h-91.256c-1.653 0-2.992 1.341-2.992 2.996 0 1.654 1.339 2.996 2.992 2.996z"/><path d="m137.329 241.288h52.36c1.653 0 2.992 1.341 2.992 2.996s-1.339 2.996-2.992 2.996h-52.36c-1.652 0-2.992-1.341-2.992-2.996s1.34-2.996 2.992-2.996z"/><path d="m245.041 501.948h50.865c1.652 0 2.991-1.341 2.991-2.996 0-1.654-1.339-2.996-2.991-2.996h-50.865c-1.652 0-2.992 1.342-2.992 2.996 0 1.655 1.34 2.996 2.992 2.996z"/><path d="m155.281 190.355h50.864c1.652 0 2.992 1.341 2.992 2.996 0 1.654-1.34 2.996-2.992 2.996h-50.864c-1.653 0-2.992-1.342-2.992-2.996 0-1.655 1.339-2.996 2.992-2.996z"/><path d="m189.689 139.421h50.864c1.653 0 2.992 1.342 2.992 2.996 0 1.655-1.339 2.996-2.992 2.996h-50.864c-1.652 0-2.992-1.341-2.992-2.996 0-1.654 1.34-2.996 2.992-2.996z"/><path d="m262.994 88.4883h50.865c1.652 0 2.992 1.3413 2.992 2.996 0 1.6546-1.34 2.996-2.992 2.996h-50.865c-1.652 0-2.992-1.3414-2.992-2.996 0-1.6547 1.34-2.996 2.992-2.996z"/><path d="m75.9919 343.155h121.1771c1.653 0 2.992 1.341 2.992 2.996 0 1.654-1.339 2.996-2.992 2.996h-121.1771c-1.6524 0-2.9919-1.342-2.9919-2.996 0-1.655 1.3395-2.996 2.9919-2.996z"/></g></svg>

<svg width="736" height="737" viewBox="0 0 736 737" fill="none" xmlns="http://www.w3.org/2000/svg">
<path d="M0 368.5C0 165.259 164.759 0 368 0V0C571.241 0 736 165.259 736 368.5V368.5C736 571.741 571.241 737 368 737V737C164.759 737 0 571.741 0 368.5V368.5Z" fill="url(#paint0_linear_108_617)"/>
<path d="M623.869 280.478C623.869 169.231 533.503 79 422.087 79C310.671 79 219.847 169.917 220.303 281.164C220.532 336.445 242.954 386.471 279.1 422.792C307.24 451.118 328.059 485.84 338.353 524.445L354.597 584.524H486.831L502.159 527.643C512.912 488.353 534.188 452.717 563.244 424.163C600.763 387.385 623.869 336.672 623.869 280.478V280.478Z" fill="#29C3CB"/>
<path d="M421.18 656.697C384.963 656.697 355.521 627.285 355.521 591.146V578.363H486.839V591.146C486.839 627.507 457.404 656.697 421.18 656.697V656.697Z" fill="white" stroke="#E1E4E5" stroke-width="4.59"/>
<path d="M351.262 585.392H490.132C492.877 585.392 495.393 582.878 495.393 580.138C495.393 577.168 493.105 574.884 490.132 574.884H351.262C348.289 574.884 346 577.168 346 580.138C346 583.107 348.289 585.392 351.262 585.392Z" fill="#E1E4E5"/>
<path d="M480.13 632.508H361.261C358.287 632.508 356 630.224 356 627.254C356 624.285 358.287 622 361.261 622H480.13C483.104 622 485.391 624.285 485.391 627.254C485.391 629.994 483.104 632.508 480.13 632.508Z" fill="#E1E4E5"/>
<path d="M351.262 608.508H490.132C492.877 608.508 495.393 605.994 495.393 603.254C495.393 600.285 493.105 598 490.132 598H351.262C348.289 598 346 600.285 346 603.254C346 606.224 348.289 608.508 351.262 608.508Z" fill="#E1E4E5"/>
<path fill-rule="evenodd" clip-rule="evenodd" d="M339.614 311.804C335.611 311.804 331.947 312.774 328.7 314.687C324.514 317.173 320.995 322.14 318.822 328.651C316.663 335.121 315.928 342.863 317.086 350.52C321.183 377.517 343.673 406.635 394.935 414.978C391.792 384.505 386.573 357.211 378.224 340.95C370.891 326.673 359.303 316.321 347.462 312.922C344.73 312.171 342.116 311.804 339.614 311.804ZM444.115 571.207L444.225 573.529H453.236L453.137 570.996L453.133 570.877L453.132 570.873C452.982 567.188 449.832 489.899 455.777 423.492C512.051 415.085 537.895 382.822 542.574 351.786C543.957 342.599 543.073 333.408 540.38 325.616C537.696 317.854 533.14 311.279 527.011 307.632C519.685 303.253 510.917 302.439 501.783 305.054C487.481 309.13 474.185 321.275 465.946 337.24L465.945 337.243C456.674 355.267 451.236 384.643 448.057 416.207C441.112 416.986 433.702 417.394 425.757 417.394C417.813 417.394 410.403 416.986 403.457 416.207C400.278 384.601 394.839 355.267 385.57 337.243L385.569 337.24C377.33 321.276 364.033 309.13 349.732 305.054C340.599 302.441 331.834 303.251 324.507 307.629C318.353 311.276 313.796 317.852 311.118 325.618C308.429 333.411 307.558 342.601 308.941 351.786V351.788C313.62 382.779 339.463 415.041 395.737 423.491C401.677 489.849 398.535 567.072 398.381 570.863L398.38 570.876L398.375 570.996L398.277 573.529H407.289L407.398 571.205C407.621 566.446 410.119 490.852 404.279 424.491C411.036 425.158 418.231 425.535 425.802 425.535C433.361 425.535 440.556 425.193 447.325 424.504C441.483 490.861 443.89 566.486 444.115 571.207ZM456.624 415.022C459.767 384.547 464.986 357.214 473.332 340.999C480.72 326.705 492.27 316.314 504.101 312.966L504.118 312.962C506.835 312.172 509.442 311.804 511.947 311.804C515.949 311.804 519.605 312.776 522.844 314.724L522.857 314.731C527.043 317.215 530.564 322.183 532.737 328.696C534.896 335.166 535.633 342.906 534.473 350.564C530.377 377.518 507.885 406.679 456.624 415.022Z" fill="white"/>
<path d="M339.614 311.804C335.611 311.804 331.947 312.774 328.7 314.687C324.514 317.173 320.995 322.14 318.822 328.651C316.663 335.121 315.928 342.863 317.086 350.52C321.183 377.517 343.673 406.635 394.935 414.978C391.792 384.505 386.573 357.211 378.224 340.95C370.891 326.673 359.303 316.321 347.462 312.922M339.614 311.804C342.116 311.804 344.73 312.171 347.462 312.922M339.614 311.804L347.462 312.922M398.38 570.876L398.375 570.996L398.277 573.529H407.289L407.398 571.205C407.621 566.446 410.119 490.852 404.279 424.491C411.036 425.158 418.231 425.535 425.802 425.535C433.361 425.535 440.556 425.193 447.325 424.504C441.483 490.861 443.89 566.486 444.115 571.207L444.225 573.529H453.236L453.137 570.996L453.133 570.877L453.132 570.873C452.982 567.188 449.832 489.899 455.777 423.492C512.051 415.085 537.895 382.822 542.574 351.786C543.957 342.599 543.073 333.408 540.38 325.616C537.696 317.854 533.14 311.279 527.011 307.632C519.685 303.253 510.917 302.439 501.783 305.054C487.481 309.13 474.185 321.275 465.946 337.24L465.945 337.243C456.674 355.267 451.236 384.643 448.057 416.207C441.112 416.986 433.702 417.394 425.757 417.394C417.813 417.394 410.403 416.986 403.457 416.207C400.278 384.601 394.839 355.267 385.57 337.243L385.569 337.24C377.33 321.276 364.033 309.13 349.732 305.054C340.599 302.441 331.834 303.251 324.507 307.629C318.353 311.276 313.796 317.852 311.118 325.618C308.429 333.411 307.558 342.601 308.941 351.786V351.788C313.62 382.779 339.463 415.041 395.737 423.491C401.677 489.849 398.535 567.072 398.381 570.863M398.38 570.876L398.381 570.863M398.38 570.876C398.381 570.872 398.381 570.868 398.381 570.863M456.624 415.022C459.767 384.547 464.986 357.214 473.332 340.999C480.72 326.705 492.27 316.314 504.101 312.966L504.118 312.962C506.835 312.172 509.442 311.804 511.947 311.804C515.949 311.804 519.605 312.776 522.844 314.724L522.857 314.731C527.043 317.215 530.564 322.183 532.737 328.696C534.896 335.166 535.633 342.906 534.473 350.564C530.377 377.518 507.885 406.679 456.624 415.022Z" stroke="white" stroke-width="3.489"/>
<path d="M131.345 394.09H222.602C224.254 394.09 225.594 395.431 225.594 397.086C225.594 398.74 224.254 400.082 222.602 400.082H131.345C129.693 400.082 128.353 398.74 128.353 397.086C128.353 395.431 129.693 394.09 131.345 394.09Z" fill="#E1E4E5"/>
<path d="M96.9366 292.221H186.697C188.35 292.221 189.689 293.563 189.689 295.217C189.689 296.872 188.35 298.213 186.697 298.213H96.9366C95.2842 298.213 93.9447 296.872 93.9447 295.217C93.9447 293.563 95.2842 292.221 96.9366 292.221Z" fill="#E1E4E5"/>
<path d="M174.73 451.015H265.986C267.639 451.015 268.978 449.673 268.978 448.019C268.978 446.364 267.639 445.023 265.986 445.023H174.73C173.077 445.023 171.738 446.364 171.738 448.019C171.738 449.673 173.077 451.015 174.73 451.015Z" fill="#E1E4E5"/>
<path d="M137.329 241.288H189.689C191.342 241.288 192.681 242.629 192.681 244.284C192.681 245.939 191.342 247.28 189.689 247.28H137.329C135.677 247.28 134.337 245.939 134.337 244.284C134.337 242.629 135.677 241.288 137.329 241.288Z" fill="#E1E4E5"/>
<path d="M245.041 501.948H295.906C297.558 501.948 298.897 500.607 298.897 498.952C298.897 497.298 297.558 495.956 295.906 495.956H245.041C243.389 495.956 242.049 497.298 242.049 498.952C242.049 500.607 243.389 501.948 245.041 501.948Z" fill="#E1E4E5"/>
<path d="M155.281 190.355H206.145C207.797 190.355 209.137 191.696 209.137 193.351C209.137 195.005 207.797 196.347 206.145 196.347H155.281C153.628 196.347 152.289 195.005 152.289 193.351C152.289 191.696 153.628 190.355 155.281 190.355Z" fill="#E1E4E5"/>
<path d="M189.689 139.421H240.553C242.206 139.421 243.545 140.763 243.545 142.417C243.545 144.072 242.206 145.413 240.553 145.413H189.689C188.037 145.413 186.697 144.072 186.697 142.417C186.697 140.763 188.037 139.421 189.689 139.421Z" fill="#E1E4E5"/>
<path d="M262.994 88.4883H313.859C315.511 88.4883 316.851 89.8296 316.851 91.4843C316.851 93.1389 315.511 94.4803 313.859 94.4803H262.994C261.342 94.4803 260.002 93.1389 260.002 91.4843C260.002 89.8296 261.342 88.4883 262.994 88.4883Z" fill="#E1E4E5"/>
<path d="M75.9919 343.155H197.169C198.822 343.155 200.161 344.496 200.161 346.151C200.161 347.805 198.822 349.147 197.169 349.147H75.9919C74.3395 349.147 73 347.805 73 346.151C73 344.496 74.3395 343.155 75.9919 343.155Z" fill="#E1E4E5"/>
<defs>
<linearGradient id="paint0_linear_108_617" x1="368" y1="0" x2="368" y2="737" gradientUnits="userSpaceOnUse">
<stop offset="0.00225706" stop-color="#2B5355"/>
<stop offset="1"/>
</linearGradient>
</defs>
</svg>
